X:1
T:Title
%%score { 1 | 2 }
L:1/8
M:4/4
K:Bb
V:1 treble nm="Grand Piano"
V:2 bass 
V:1
 z4 z2[Q:1/4=108] [DF][DF] |[M:3/4] [DB]3 [DB] [DB]2 | [DB]2 [EA]2 [FB]2 | c2 B2 G2 | %4
 [DF]4 [B,D][CE] | [DF]2 G2 A2 | B2 c2 d2 | [=Ed]2 [EG]2 [Ec]2 | c4 cc | c2 =B2 c2 | e2 d2 [Fc]2 | %11
 [FB]2 [FB]2 c2 | d4 [Fd][Fd] | [Fc]3 [Fc] [Fc]2 | [=Ec]2 [EB]2 [CEA]2 | [D=EB]2 [CEA]2 [B,EG]2 | %16
[M:2/4] [A,F]4 |[M:1/4] [A,F][A,F] |[M:3/4] [Fd]3 [Fd] [Fd]2 | [Fd]2 [Fc]2 [FB]2 | %20
 [GB]2 [FA]2 [EG]2 | [DF]4 FF | ^F3 F F2 | G2 G2 A2 | B4 [Gc]2 |[M:4/4] [^Fd]6 [Fd][Fd] | %26
[M:3/4] [Fe]3 [Fe] [Fe]2 | [Fe]2 [FA]2 [FA]2 | [FB]3 [FB] c2 | d4 de | f3 d [FB]2 | %31
 [Gc]2 [Gd]2 [Ge]2 |[M:7/8] [Fd]- [Fd]3 [Ec]3 |[M:2/4] [DB]4 |] %34
V:2
 z4 z2 [B,,B,][B,,B,] |[M:3/4] [B,,F,]3 [B,,F,] [B,,F,]2 | [B,,F,]2 [C,F,]2 [D,B,]2 | %3
 [E,G,E]2 [E,G,E]2 [E,B,E]2 | [B,,B,]4 [B,,F,]2 | [B,,B,]2 [B,D]2 [A,CD]2 | %6
 [G,B,D]2 [G,B,D]2 [G,B,D]2 | [C,B,]2 [C,B,]2 [C,B,]2 | [F,A,F]4 [F,A,F][F,A,F] | %9
 [F,A,F]2 [F,_A,F]2 [F,=A,F]2 | [F,CF]2 [F,B,F]2 [E,A,]2 | [D,B,]2 [D,B,]2[K:treble] [F,A,F]2 | %12
 [B,F]4[K:bass] [B,,B,][B,,B,] | [C,A,]3 [C,A,] [C,A,]2 | [C,G,]2 [C,G,]2 C,2 | C,2 C,2 C,2 | %16
[M:2/4] F,4 |[M:1/4] F,F, |[M:3/4] [B,,B,]3 [B,,B,] [B,,B,]2 | [B,,B,]2 [C,A,]2 [D,B,]2 | %20
 [E,E]2 [E,E]2 [E,B,]2 | [B,,B,]4 [B,D][B,D] | [A,CD]3 [A,CD] [A,CD]2 | %23
 [G,B,D]2 [G,B,D]2 [^F,CD]2 | [G,B,D]4 [E,G,]2 |[M:4/4] [D,A,]6 [D,A,][D,A,] | %26
[M:3/4] [C,A,]3 [C,A,] [C,A,]2 | [F,A,]2 [F,C]2 [E,C]2 | [D,B,]3 [D,B,][K:treble] [F,A,F]2 | %29
 [B,F]4 [B,F][B,CF] | [B,DF]3 [B,F][K:bass] [D,B,]2 | [E,B,]2 [E,B,]2 [E,B,]2 | %32
[M:7/8] [F,B,]- [F,B,]3 [F,A,]3 |[M:2/4] [B,,B,]4 |] %34

